localPackages/DesignSystem/Sources/DesignSystem/Resources/Assets.xcassets/IconSet/ic-paper-plane-horizontal.imageset/ic-paper-plane-horizontal.svg

<svg width="24" height="24" viewBox="0 0 24 24" fill="none" xmlns="http://www.w3.org/2000/svg">
<g id="ic-paper-plane-horizontal">
<path id="Icon" fill-rule="evenodd" clip-rule="evenodd" d="M18.6666 11.2601L3.31985 3.59521L5.09542 11.2513L18.6666 11.2601ZM5.08647 12.7513L18.6037 12.76L3.32828 20.4062L5.08647 12.7513ZM1.52157 2.48072C1.3694 1.8217 2.05142 1.28377 2.6552 1.58658L22.0585 11.2774C22.6467 11.5725 22.6473 12.4134 22.0594 12.7076L2.6686 22.4139C2.0652 22.7159 1.38249 22.1771 1.53381 21.5183L3.64183 12.3402C3.69616 12.1037 3.69601 11.8578 3.64137 11.6211L1.52157 2.48072Z" fill="#0F0F0F"/>
</g>
</svg>

<svg xmlns="http://www.w3.org/2000/svg" width="24" height="24" viewBox="0 0 24 24">
  <g class="ic-paper-plane-horizontal">
    <path fill-rule="evenodd" d="M18.667 11.26 3.32 3.595l1.775 7.656 13.572.01Zm-13.58 1.491 13.517.009-15.276 7.646 1.758-7.655ZM1.521 2.481a.797.797 0 0 1 1.133-.894l19.403 9.69a.8.8 0 0 1 .001 1.43L2.67 22.415a.8.8 0 0 1-1.135-.896l2.108-9.178a1.602 1.602 0 0 0 0-.719l-2.12-9.14Z" class="Icon"/>
  </g>
</svg>
